X:1
T:Navvy Boots
M:2/4
L:1/8
K:C
 z2 z E| A,B, CD| E A2 G|E-A, A, G,| A,3 E|A,-B, CD| E2 AB| c3/2- B/2 AG|\
 E3 E| A2 GE| F2 AF| E2 DC| D2 CD| E2 FE| E2 DC| DCA,-G,| A,3 z|
